img/yt.svg

<svg width="21" height="21" viewBox="0 0 21 21" fill="none" xmlns="http://www.w3.org/2000/svg">
<path d="M12.1831 10.3247L9.82477 9.22429C9.61897 9.12874 9.44992 9.23584 9.44992 9.46369V11.5364C9.44992 11.7642 9.61897 11.8713 9.82477 11.7758L12.182 10.6754C12.3889 10.5788 12.3889 10.4213 12.1831 10.3247ZM10.4999 0.420044C4.93282 0.420044 0.419922 4.93294 0.419922 10.5C0.419922 16.0671 4.93282 20.58 10.4999 20.58C16.067 20.58 20.5799 16.0671 20.5799 10.5C20.5799 4.93294 16.067 0.420044 10.4999 0.420044ZM10.4999 14.595C5.34022 14.595 5.24992 14.1299 5.24992 10.5C5.24992 6.87019 5.34022 6.40504 10.4999 6.40504C15.6596 6.40504 15.7499 6.87019 15.7499 10.5C15.7499 14.1299 15.6596 14.595 10.4999 14.595Z" fill="#BDBDBD"/>
</svg>

<svg width="21" height="21" fill="none" xmlns="http://www.w3.org/2000/svg"><path d="m12.183 10.325-2.358-1.1c-.206-.096-.375.01-.375.239v2.072c0 .228.169.335.375.24l2.357-1.1c.207-.097.207-.255.001-.351zM10.5.42C4.933.42.42 4.933.42 10.5S4.933 20.58 10.5 20.58s10.08-4.513 10.08-10.08S16.067.42 10.5.42zm0 14.175c-5.16 0-5.25-.465-5.25-4.095s.09-4.095 5.25-4.095 5.25.465 5.25 4.095-.09 4.095-5.25 4.095z" fill="#BDBDBD"/></svg>
